svg/device/radar_fill.svg

<?xml version="1.0" encoding="UTF-8"?>
<svg width="24px" height="24px" viewBox="0 0 24 24" version="1.1" xmlns="http://www.w3.org/2000/svg" xmlns:xlink="http://www.w3.org/1999/xlink">
    <title>radar_fill</title>
    <g id="页面-1" stroke="none" stroke-width="1" fill="none" fill-rule="evenodd">
        <g id="Device" transform="translate(-432.000000, -144.000000)" fill-rule="nonzero">
            <g id="radar_fill" transform="translate(432.000000, 144.000000)">
                 <path d="M24,0 L24,24 L0,24 L0,0 L24,0 Z M12.5934901,23.257841 L12.5819402,23.2595131 L12.5108777,23.2950439 L12.4918791,23.2987469 L12.4918791,23.2987469 L12.4767152,23.2950439 L12.4056548,23.2595131 C12.3958229,23.2563662 12.3870493,23.2590235 12.3821421,23.2649074 L12.3780323,23.275831 L12.360941,23.7031097 L12.3658947,23.7234994 L12.3769048,23.7357139 L12.4804777,23.8096931 L12.4953491,23.8136134 L12.4953491,23.8136134 L12.5071152,23.8096931 L12.6106902,23.7357139 L12.6232938,23.7196733 L12.6232938,23.7196733 L12.6266527,23.7031097 L12.609561,23.275831 C12.6075724,23.2657013 12.6010112,23.2592993 12.5934901,23.257841 L12.5934901,23.257841 Z M12.8583906,23.1452862 L12.8445485,23.1473072 L12.6598443,23.2396597 L12.6498822,23.2499052 L12.6498822,23.2499052 L12.6471943,23.2611114 L12.6650943,23.6906389 L12.6699349,23.7034178 L12.6699349,23.7034178 L12.678386,23.7104931 L12.8793402,23.8032389 C12.8914285,23.8068999 12.9022333,23.8029875 12.9078286,23.7952264 L12.9118235,23.7811639 L12.8776777,23.1665331 C12.8752882,23.1545897 12.8674102,23.1470016 12.8583906,23.1452862 L12.8583906,23.1452862 Z M12.1430473,23.1473072 C12.1332178,23.1423925 12.1221763,23.1452606 12.1156365,23.1525954 L12.1099173,23.1665331 L12.0757714,23.7811639 C12.0751323,23.7926639 12.0828099,23.8018602 12.0926481,23.8045676 L12.108256,23.8032389 L12.3092106,23.7104931 L12.3186497,23.7024347 L12.3186497,23.7024347 L12.3225043,23.6906389 L12.340401,23.2611114 L12.337245,23.2485176 L12.337245,23.2485176 L12.3277531,23.2396597 L12.1430473,23.1473072 Z" id="MingCute" fill-rule="nonzero"></path>
                <path d="M4.57538,4.57539 C5.16116,3.9896 6.11091,3.9896 6.6967,4.57539 C7.28249,5.16117 7.28249,6.11092 6.6967,6.69671 C5.33782,8.05558 4.5,9.92853 4.5,12 C4.5,14.0715 5.33782,15.9444 6.6967,17.3033 C7.28249,17.8891 7.28249,18.8388 6.6967,19.4246 C6.11091,20.0104 5.16116,20.0104 4.57538,19.4246 C2.67689,17.5261 1.5,14.8991 1.5,12 C1.5,9.10093 2.67689,6.47387 4.57538,4.57539 Z M17.3033,4.57539 C17.8891,3.9896 18.8388,3.9896 19.4246,4.57539 C21.3231,6.47387 22.5,9.10093 22.5,12 C22.5,14.8991 21.3231,17.5261 19.4246,19.4246 C18.8388,20.0104 17.8891,20.0104 17.3033,19.4246 C16.7175,18.8388 16.7175,17.8891 17.3033,17.3033 C18.6622,15.9444 19.5,14.0715 19.5,12 C19.5,9.92853 18.6622,8.05558 17.3033,6.69671 C16.7175,6.11092 16.7175,5.16117 17.3033,4.57539 Z M9.52513,7.40382 C10.1109,7.9896 10.1109,8.93935 9.52513,9.52514 C8.89011,10.1602 8.5,11.0331 8.5,12 C8.5,12.9122769 8.8473297,13.7411361 9.42009315,14.365295 L9.56791,14.517 C10.1636,15.0927 10.1797,16.0423 9.60396,16.638 C9.02821,17.2336 8.0786,17.2498 7.48294,16.674 C6.26206,15.4939 5.5,13.8347 5.5,12 C5.5,10.2055 6.22918,8.57844 7.40381,7.40382 C7.98959,6.81803 8.93934,6.81803 9.52513,7.40382 Z M16.6388,7.44677 C17.7884,8.61794 18.5,10.2274 18.5,12 C18.5,13.7945 17.7708,15.4216 16.5962,16.5962 C16.0104,17.182 15.0607,17.182 14.4749,16.5962 C13.8891,16.0104 13.8891,15.0607 14.4749,14.4749 C15.1099,13.8399 15.5,12.9669 15.5,12 C15.5,11.0447 15.1193,10.1814 14.4979,9.54836 C13.9175,8.95718 13.9263,8.00747 14.5175,7.42713 C15.1087,6.84679 16.0584,6.85559 16.6388,7.44677 Z M12,10 C13.1046,10 14,10.8954 14,12 C14,13.1046 13.1046,14 12,14 C10.8954,14 10,13.1046 10,12 C10,10.8954 10.8954,10 12,10 Z" id="形状" fill="#09244B"></path>
            </g>
        </g>
    </g>
</svg>

<svg xmlns="http://www.w3.org/2000/svg" width="24" height="24"><g fill="none" fill-rule="nonzero"><path d="M24 0v24H0V0h24ZM12.593 23.258l-.011.002-.071.035-.02.004-.014-.004-.071-.035c-.01-.004-.019-.001-.024.005l-.004.01-.017.428.005.02.01.013.104.074.015.004.012-.004.104-.074.012-.016.004-.017-.017-.427c-.002-.01-.009-.017-.017-.018Zm.265-.113-.013.002-.185.093-.01.01-.003.011.018.43.005.012.008.007.201.093c.012.004.023 0 .029-.008l.004-.014-.034-.614c-.003-.012-.01-.02-.02-.022Zm-.715.002a.023.023 0 0 0-.027.006l-.006.014-.034.614c0 .012.007.02.017.024l.015-.002.201-.093.01-.008.004-.011.017-.43-.003-.012-.01-.01-.184-.092Z"/><path fill="#09244B" d="M4.575 4.575a1.5 1.5 0 1 1 2.122 2.122A7.472 7.472 0 0 0 4.5 12c0 2.072.838 3.944 2.197 5.303a1.5 1.5 0 1 1-2.122 2.122A10.472 10.472 0 0 1 1.5 12c0-2.9 1.177-5.526 3.075-7.425Zm12.728 0a1.5 1.5 0 0 1 2.122 0A10.472 10.472 0 0 1 22.5 12c0 2.9-1.177 5.526-3.075 7.425a1.5 1.5 0 1 1-2.122-2.122A7.472 7.472 0 0 0 19.5 12a7.472 7.472 0 0 0-2.197-5.303 1.5 1.5 0 0 1 0-2.122ZM9.525 7.404a1.5 1.5 0 0 1 0 2.121A3.484 3.484 0 0 0 8.5 12c0 .912.347 1.741.92 2.365l.148.152a1.5 1.5 0 1 1-2.085 2.157A6.485 6.485 0 0 1 5.5 12c0-1.794.73-3.422 1.904-4.596a1.5 1.5 0 0 1 2.121 0Zm7.114.043A6.484 6.484 0 0 1 18.5 12c0 1.794-.73 3.422-1.904 4.596a1.5 1.5 0 1 1-2.121-2.121A3.484 3.484 0 0 0 15.5 12c0-.955-.38-1.819-1.002-2.452a1.5 1.5 0 1 1 2.14-2.101ZM12 10a2 2 0 1 1 0 4 2 2 0 0 1 0-4Z"/></g></svg>
